images/ddim.svg

<svg height="250" viewBox="0 0 250 250" width="250" xmlns="http://www.w3.org/2000/svg"><path d="m246.308594 125c0 66.566406-53.960938 120.53125-120.53125 120.53125-66.566406 0-120.53125-53.964844-120.53125-120.53125s53.964844-120.53125 120.53125-120.53125c66.570312 0 120.53125 53.964844 120.53125 120.53125zm0 0" fill="#eaa422"/><path d="m66.648438 112.234375c7.390624 9.023437 19.984374 14.964844 34.277343 14.964844 2.6875 0 5.3125-.210938 7.855469-.609375 2.1875-.34375 3.863281-1.867188 4.433594-4.019532.570312-2.15625-.128906-4.320312-1.851563-5.71875-7.070312-5.738281-11.59375-14.539062-11.59375-24.40625 0-17.292968 13.894531-31.316406 31.035157-31.316406 13.691406 0 25.304687 11.945313 29.425781 23.171875l11.003906-4.722656c1.3125-.5625 2.699219-.429687 3.882813.371094 1.183593.804687 1.832031 2.050781 1.816406 3.488281-.058594 4.253906-1.800782 8.09375-4.589844 10.867188.839844.132812 1.625.5 2.265625 1.152343 1.035156 1.050781 1.421875 2.457031 1.070313 3.898438-.964844 3.960937-6.792969 7.007812-13.839844 7.007812-1.242188 0-2.433594-.101562-3.578125-.277343-1 1.453124-2.140625 2.707031-3.332031 3.953124-.664063.695313-.914063 1.609376-.691407 2.546876.21875.945312.851563 1.644531 1.757813 1.964843 29.480468 10.410157 40.417968 67.191407-32.3125 67.191407-28.019532 0-65.699219-12.78125-65.699219-46.886719.003906-8.710938 3.28125-16.644531 8.664063-22.621094zm79.65625-30.109375c2.28125 3.199219 5.339843 4.921875 6.832031 3.835938 1.492187-1.082032.851562-4.554688-1.433594-7.753907-2.28125-3.203125-5.339844-4.921875-6.832031-3.839843-1.488282 1.082031-.847656 4.558593 1.433594 7.757812zm0 0" fill="#fff"/></svg>

<!-- Generator: Adobe Illustrator 17.0.0, SVG Export Plug-In . SVG Version: 6.00 Build 0)  -->
<svg xmlns="http://www.w3.org/2000/svg" xmlns:xlink="http://www.w3.org/1999/xlink" width="250px" height="250px" viewBox="0 0 250 250" version="1.1">
<g id="surface1">
<path style=" stroke:none;fill-rule:nonzero;fill:rgb(91.764706%,64.313728%,13.333334%);fill-opacity:1;" d="M 246.308594 125 C 246.308594 191.566406 192.347656 245.53125 125.777344 245.53125 C 59.210938 245.53125 5.246094 191.566406 5.246094 125 C 5.246094 58.433594 59.210938 4.46875 125.777344 4.46875 C 192.347656 4.46875 246.308594 58.433594 246.308594 125 Z M 246.308594 125 "/>
<path style=" stroke:none;fill-rule:nonzero;fill:rgb(100%,100%,100%);fill-opacity:1;" d="M 66.648438 112.234375 C 74.039062 121.257812 86.632812 127.199219 100.925781 127.199219 C 103.613281 127.199219 106.238281 126.988281 108.78125 126.589844 C 110.96875 126.246094 112.644531 124.722656 113.214844 122.570312 C 113.785156 120.414062 113.085938 118.25 111.363281 116.851562 C 104.292969 111.113281 99.769531 102.3125 99.769531 92.445312 C 99.769531 75.152344 113.664062 61.128906 130.804688 61.128906 C 144.496094 61.128906 156.109375 73.074219 160.230469 84.300781 L 171.234375 79.578125 C 172.546875 79.015625 173.933594 79.148438 175.117188 79.949219 C 176.300781 80.753906 176.949219 82 176.933594 83.4375 C 176.875 87.691406 175.132812 91.53125 172.34375 94.304688 C 173.183594 94.4375 173.96875 94.804688 174.609375 95.457031 C 175.644531 96.507812 176.03125 97.914062 175.679688 99.355469 C 174.714844 103.316406 168.886719 106.363281 161.839844 106.363281 C 160.597656 106.363281 159.40625 106.261719 158.261719 106.085938 C 157.261719 107.539062 156.121094 108.792969 154.929688 110.039062 C 154.265625 110.734375 154.015625 111.648438 154.238281 112.585938 C 154.457031 113.53125 155.089844 114.230469 155.996094 114.550781 C 185.476562 124.960938 196.414062 181.742188 123.683594 181.742188 C 95.664062 181.742188 57.984375 168.960938 57.984375 134.855469 C 57.988281 126.144531 61.265625 118.210938 66.648438 112.234375 Z M 146.304688 82.125 C 148.585938 85.324219 151.644531 87.046875 153.136719 85.960938 C 154.628906 84.878906 153.988281 81.40625 151.703125 78.207031 C 149.421875 75.003906 146.363281 73.285156 144.871094 74.367188 C 143.382812 75.449219 144.023438 78.925781 146.304688 82.125 Z M 146.304688 82.125 "/>
</g>
</svg>
